icons/svg/24x24/download/outline.svg

<svg width="24" height="24" fill="none" xmlns="http://www.w3.org/2000/svg">
  <path fill-rule="evenodd" clip-rule="evenodd" d="M6 4h1c2.206 0 4 1.794 4 4v3H6l6 8 6-8h-5V8c0-3.309-2.691-6-6-6H6a1 1 0 100 2zm16 13v2c0 1.654-1.346 3-3 3H5c-1.654 0-3-1.346-3-3v-2a1 1 0 112 0v2a1 1 0 001 1h14a1 1 0 001-1v-2a1 1 0 112 0z" fill="#000"/>
</svg>

<svg xmlns="http://www.w3.org/2000/svg" width="24" height="24" viewBox="0 0 24 24">
  <path fill-rule="evenodd" d="M6,4 L7,4 C9.206,4 11,5.794 11,8 L11,11 L6,11 L12,19 L18,11 L13,11 L13,8 C13,4.691 10.309,2 7,2 L6,2 C5.447,2 5,2.447 5,3 C5,3.553 5.447,4 6,4 M22,17 L22,19 C22,20.654 20.654,22 19,22 L5,22 C3.346,22 2,20.654 2,19 L2,17 C2,16.447 2.447,16 3,16 C3.553,16 4,16.447 4,17 L4,19 C4,19.552 4.448,20 5,20 L19,20 C19.552,20 20,19.552 20,19 L20,17 C20,16.447 20.447,16 21,16 C21.553,16 22,16.447 22,17"/>
</svg>
